X: 37
T:-Donald Blue
M:4/4
L:1/8
Q:120
K:D
dBAF AFAB|dBAF E2 D2|dBAF AF- A2|1BBBA B2 e2:|2BBBA B2 d2|:!
ABde fafd|fafd ed- B2|ABde fafd|BBBA B2 d2:||
